icons-rebrand/svg/back-to-full-screen-light.svg

<svg width="32" height="32" viewBox="0 0 32 32" fill="none" xmlns="http://www.w3.org/2000/svg">
<path d="M24.9998 9.50002H20.9998C20.8672 9.50002 20.74 9.5527 20.6462 9.64647C20.5525 9.74024 20.4998 9.86742 20.4998 10C20.4998 10.1326 20.5525 10.2598 20.6462 10.3536C20.74 10.4473 20.8672 10.5 20.9998 10.5H23.7938L19.6468 14.646C19.599 14.6921 19.5609 14.7473 19.5347 14.8083C19.5085 14.8693 19.4947 14.9349 19.4942 15.0013C19.4936 15.0677 19.5062 15.1336 19.5314 15.195C19.5565 15.2564 19.5936 15.3123 19.6406 15.3592C19.6875 15.4062 19.7434 15.4433 19.8048 15.4684C19.8663 15.4936 19.9321 15.5062 19.9985 15.5056C20.0649 15.5051 20.1305 15.4913 20.1915 15.4651C20.2525 15.4389 20.3077 15.4008 20.3538 15.353L24.4988 11.208L24.4998 13.999C24.4998 14.1316 24.5525 14.2588 24.6462 14.3526C24.74 14.4463 24.8672 14.499 24.9998 14.499C25.1324 14.499 25.2596 14.4463 25.3533 14.3526C25.4471 14.2588 25.4998 14.1316 25.4998 13.999V9.99902C25.4998 9.86642 25.4471 9.73924 25.3533 9.64547C25.2596 9.5517 25.1324 9.49902 24.9998 9.49902V9.50002Z" fill="#0F0F0F"/>
<path d="M25 5.5H7C5.80693 5.50132 4.66311 5.97585 3.81948 6.81948C2.97585 7.66311 2.50132 8.80693 2.5 10V22C2.50132 23.1931 2.97585 24.3369 3.81948 25.1805C4.66311 26.0241 5.80693 26.4987 7 26.5H25C26.1931 26.4987 27.3369 26.0241 28.1805 25.1805C29.0241 24.3369 29.4987 23.1931 29.5 22V10C29.4987 8.80693 29.0241 7.66311 28.1805 6.81948C27.3369 5.97585 26.1931 5.50132 25 5.5ZM16.552 25.5H7C6.07207 25.4989 5.18244 25.1299 4.5263 24.4737C3.87015 23.8176 3.50106 22.9279 3.5 22V16.5H13.052C13.9799 16.5013 14.8693 16.8705 15.5254 17.5266C16.1815 18.1827 16.5507 19.0721 16.552 20V25.5ZM28.5 22C28.4989 22.9279 28.1299 23.8176 27.4737 24.4737C26.8176 25.1299 25.9279 25.4989 25 25.5H17.552V20C17.5507 18.8069 17.0761 17.6631 16.2325 16.8195C15.3889 15.9759 14.2451 15.5013 13.052 15.5H3.5V10C3.50106 9.07207 3.87015 8.18244 4.5263 7.5263C5.18244 6.87015 6.07207 6.50106 7 6.5H25C25.9279 6.50106 26.8176 6.87015 27.4737 7.5263C28.1299 8.18244 28.4989 9.07207 28.5 10V22Z" fill="#0F0F0F"/>
</svg>

<svg width="32" height="32" viewBox="0 0 32 32" fill="none" xmlns="http://www.w3.org/2000/svg"><path d="M25 9.5h-4a.5.5 0 1 0 0 1h2.794l-4.147 4.146a.5.5 0 1 0 .707.707l4.145-4.145.001 2.791a.5.5 0 0 0 1 0v-4a.5.5 0 0 0-.5-.5z" fill="#0F0F0F"/><path d="M25 5.5H7A4.505 4.505 0 0 0 2.5 10v12A4.505 4.505 0 0 0 7 26.5h18a4.505 4.505 0 0 0 4.5-4.5V10A4.505 4.505 0 0 0 25 5.5zm-8.448 20H7A3.504 3.504 0 0 1 3.5 22v-5.5h9.552a3.505 3.505 0 0 1 3.5 3.5v5.5zM28.5 22a3.504 3.504 0 0 1-3.5 3.5h-7.448V20a4.505 4.505 0 0 0-4.5-4.5H3.5V10A3.504 3.504 0 0 1 7 6.5h18a3.504 3.504 0 0 1 3.5 3.5v12z" fill="#0F0F0F"/></svg>
